X:1
T:The Broken Token.
F:http://www.folkinfo.org/songs
B:Songs of the West by S. Baring-Gould.
S:Taken down from Robert Hard.
M:3/4
L:1/8
K:G
z2 z B B B|B2 A G A B|E2 z D G B|
w:One sum mer eve-ning, a mai-den fair Was walk ing
d2 e d c d|B2 z d d d|
w:forth in the bal my air, She met a
G2 F E A B|c4 B3/2 A1/2|
w:sai-lor up-on the way; 'Mai-den
B E E2 D2|G2 A2 (Bc d)|ed e2z c|
w:stay' he whisp er'd, 'Mai-den st ay' he wh is per'd, 'O
B3/2 A G F|E3/2 z z2||
w:pret-ty mai-den stay!'